**harm	**harte	**timestamp	**phrase	**leadinstrument	**kern
*M4/4	*M4/4	*	*	*	*
*D-:	*D-:	*	*	*	*D-:
1r;	N	0	.	r	1r;
=1	=1	=1	=1	=1	=1
*>A_intro	*>A_intro	*>A_intro	*>A_intro	*>A_intro	*>A_intro
1I	D-:maj	0.464	newline	r	1D- 1f 1a-
=2	=2	=2	=2	=2	=2
1iid	E-:min/b7	4.258	.	r	1e- 1g- 1b-
=3	=3	=3	=3	=3	=3
1I	D-:maj	8.051	.	r	1D- 1f 1a-
=4	=4	=4	=4	=4	=4
1iid	E-:min/b7	11.845	.	r	1e- 1g- 1b-
=5	=5	=5	=5	=5	=5
*>B_verse	*>B_verse	*>B_verse	*>B_verse	*>B_verse	*>B_verse
2I	D-:sus4	15.638	newline	voice	2D- 2f 2a-
2I	D-:maj	17.495	.	voice	2D- 2f 2a-
=6	=6	=6	=6	=6	=6
2I	D-:maj	19.351	.	voice	2D- 2f 2a-
4I	D-:sus4	21.208	.	voice	4D- 4f 4a-
4I	D-:maj	22.136	.	voice	4D- 4f 4a-
=7	=7	=7	=7	=7	=7
2IV7	G-:maj7	23.065	.	voice	2G- 2b- 2dd- 2ff
2IV	G-:maj6	24.921	.	voice	2G- 2b- 2dd-
=8	=8	=8	=8	=8	=8
4V	A-:sus4	26.778	.	voice	4A- 4cc 4ee-
4V	A-:maj	27.706	.	voice	4A- 4cc 4ee-
4V	A-:sus4	28.635	.	voice	4A- 4cc 4ee-
4V	A-:maj	29.563	.	voice	4A- 4cc 4ee-
=9	=9	=9	=9	=9	=9
2I	D-:sus4	30.491	newline	voice	2D- 2f 2a-
2I	D-:maj	32.369	.	voice	2D- 2f 2a-
=10	=10	=10	=10	=10	=10
1I	D-:maj	34.247	.	voice	1D- 1f 1a-
=11	=11	=11	=11	=11	=11
2I	D-:sus4	38.004	newline	voice	2D- 2f 2a-
2I	D-:maj	39.865	.	voice	2D- 2f 2a-
=12	=12	=12	=12	=12	=12
2I	D-:maj	41.727	.	voice	2D- 2f 2a-
4I	D-:sus4	43.589	.	voice	4D- 4f 4a-
4I	D-:maj	44.52	.	voice	4D- 4f 4a-
=13	=13	=13	=13	=13	=13
2IV7	G-:maj7	45.451	.	voice	2G- 2b- 2dd- 2ff
2IV	G-:maj6	47.312	.	voice	2G- 2b- 2dd-
=14	=14	=14	=14	=14	=14
4V	A-:sus4	49.174	.	voice	4A- 4cc 4ee-
4V	A-:maj	50.105	.	voice	4A- 4cc 4ee-
4V	A-:sus4	51.036	.	voice	4A- 4cc 4ee-
4V	A-:maj	51.966	.	voice	4A- 4cc 4ee-
=15	=15	=15	=15	=15	=15
2I	D-:sus4	52.897	newline	voice	2D- 2f 2a-
2I	D-:maj	54.832	.	voice	2D- 2f 2a-
=16	=16	=16	=16	=16	=16
4I	D-:maj	56.768	.	voice	4D- 4f 4a-
4Id	D-:maj/7	57.735	.	voice	4d- 4f 4a-
4iic	E-:min/5	58.703	.	voice	4e- 4g- 4B-
4V	A-:maj	59.67	.	voice	4A- 4cc 4ee-
=17	=17	=17	=17	=17	=17
*>C_chorus	*>C_chorus	*>C_chorus	*>C_chorus	*>C_chorus	*>C_chorus
1IV7	G-:maj7	60.638	newline	voice	1G- 1b- 1dd- 1ff
=18	=18	=18	=18	=18	=18
2ii7	E-:min7	64.577	.	voice	2E- 2g- 2b- 2dd-
2V	A-:maj	66.547	.	voice	2A- 2cc 2ee-
=19	=19	=19	=19	=19	=19
1I7	D-:maj7	68.516	.	voice	1D- 1f 1a- 1cc
=20	=20	=20	=20	=20	=20
4Im7	D-:7	72.456	.	voice	4D- 4f 4a- 4cc
4Id	D-:maj/7	73.44	.	voice	4d- 4f 4a-
4iic	E-:min/5	74.425	.	voice	4e- 4g- 4B-
4V	A-:maj	75.41	.	voice	4A- 4cc 4ee-
=21	=21	=21	=21	=21	=21
1IV7	G-:maj7	76.395	newline	voice	1G- 1b- 1dd- 1ff
=22	=22	=22	=22	=22	=22
2ii7f	E-:min7/4	80.347	.	voice	2E- 2g- 2b- 2dd-
2V	A-:maj	82.323	.	voice	2A- 2cc 2ee-
=23	=23	=23	=23	=23	=23
1I7	D-:maj7	84.299	.	voice	1D- 1f 1a- 1cc
=24	=24	=24	=24	=24	=24
4-VIIe	C-:maj/2	88.25	.	voice	4C- 4e- 4g-
4Im7	D-:7	89.238	.	voice	4D- 4f 4a- 4cc
4IVb	G-:maj/3	90.226	.	voice	4g- 4B- 4dd-
4V	A-:maj	91.214	.	voice	4A- 4cc 4ee-
=25	=25	=25	=25	=25	=25
1IV7	G-:maj7	92.202	newline	voice	1G- 1b- 1dd- 1ff
=26	=26	=26	=26	=26	=26
2ii7	E-:min7	96.195	.	voice	2E- 2g- 2b- 2dd-
2V	A-:maj	98.192	.	voice	2A- 2cc 2ee-
=27	=27	=27	=27	=27	=27
1I7	D-:maj7	100.189	.	voice	1D- 1f 1a- 1cc
=28	=28	=28	=28	=28	=28
4-VIIe	C-:maj/2	104.182	.	voice	4C- 4e- 4g-
4Im7	D-:7	105.18	.	voice	4D- 4f 4a- 4cc
4IVb	G-:maj/3	106.179	.	voice	4g- 4B- 4dd-
4V	A-:maj	107.177	.	voice	4A- 4cc 4ee-
=29	=29	=29	=29	=29	=29
1IV7	G-:maj7	108.175	newline	voice	1G- 1b- 1dd- 1ff
=30	=30	=30	=30	=30	=30
4IV7	G-:maj7	111.623	.	voice	4G- 4b- 4dd- 4ff
4Ib	D-:maj/3	112.484	.	voice	4d- 4F 4a-
2ii7	E-:min7	113.346	.	voice	2E- 2g- 2b- 2dd-
=31	=31	=31	=31	=31	=31
1ii7	E-:min7	115.07	.	voice	1E- 1g- 1b- 1dd-
=32	=32	=32	=32	=32	=32
2V	A-:maj	118.517	.	voice	2A- 2cc 2ee-
4V	A-:sus4	120.24	.	voice	4A- 4cc 4ee-
4V	A-:maj	121.102	.	voice	4A- 4cc 4ee-
1r;	N	121.964	.	r	1r;
=33	=33	=33	=33	=33	=33
*>B_instrumental	*>B_instrumental	*>B_instrumental	*>B_instrumental	*>B_instrumental	*>B_instrumental
2I	D-:sus4	125.411	newline	r	2D- 2f 2a-
2I	D-:maj	127.323	.	r	2D- 2f 2a-
=34	=34	=34	=34	=34	=34
2I	D-:maj	129.234	.	r	2D- 2f 2a-
4I	D-:sus4	131.146	.	r	4D- 4f 4a-
4I	D-:maj	132.101	.	r	4D- 4f 4a-
=35	=35	=35	=35	=35	=35
2IV7	G-:maj7	133.057	.	r	2G- 2b- 2dd- 2ff
2IV	G-:maj6	134.969	.	r	2G- 2b- 2dd-
=36	=36	=36	=36	=36	=36
4V	A-:sus4	136.88	.	r	4A- 4cc 4ee-
4V	A-:maj	137.836	.	r	4A- 4cc 4ee-
4V	A-:sus4	138.792	.	r	4A- 4cc 4ee-
4V	A-:maj	139.748	.	r	4A- 4cc 4ee-
=37	=37	=37	=37	=37	=37
2I	D-:sus4	140.703	newline	r	2D- 2f 2a-
2I	D-:maj	142.648	.	r	2D- 2f 2a-
=38	=38	=38	=38	=38	=38
4I	D-:maj	144.593	.	r	4D- 4f 4a-
4Id	D-:maj/7	145.565	.	r	4d- 4f 4a-
4iic	E-:min/5	146.537	.	r	4e- 4g- 4B-
4V	A-:maj	147.51	.	r	4A- 4cc 4ee-
=39	=39	=39	=39	=39	=39
*>C_chorus	*>C_chorus	*>C_chorus	*>C_chorus	*>C_chorus	*>C_chorus
1IV7	G-:maj7	148.482	newline	voice	1G- 1b- 1dd- 1ff
=40	=40	=40	=40	=40	=40
2ii7	E-:min7	152.358	.	voice	2E- 2g- 2b- 2dd-
2V	A-:maj	154.297	.	voice	2A- 2cc 2ee-
=41	=41	=41	=41	=41	=41
1I7	D-:maj7	156.235	.	voice	1D- 1f 1a- 1cc
=42	=42	=42	=42	=42	=42
4-VIIe	C-:maj/2	160.111	.	voice	4C- 4e- 4g-
4Im7	D-:7	161.08	.	voice	4D- 4f 4a- 4cc
4IVb	G-:maj/3	162.049	.	voice	4g- 4B- 4dd-
4V	A-:maj	163.018	.	voice	4A- 4cc 4ee-
=43	=43	=43	=43	=43	=43
1IV7	G-:maj7	163.987	newline	voice	1G- 1b- 1dd- 1ff
=44	=44	=44	=44	=44	=44
2ii7	E-:min7	167.824	.	voice	2E- 2g- 2b- 2dd-
2V	A-:maj	169.743	.	voice	2A- 2cc 2ee-
=45	=45	=45	=45	=45	=45
1I7	D-:maj7	171.661	.	voice	1D- 1f 1a- 1cc
=46	=46	=46	=46	=46	=46
4-VIIe	C-:maj/2	175.499	.	voice	4C- 4e- 4g-
4Im7	D-:7	176.458	.	voice	4D- 4f 4a- 4cc
4IVb	G-:maj/3	177.417	.	voice	4g- 4B- 4dd-
4V	A-:maj	178.376	.	voice	4A- 4cc 4ee-
=47	=47	=47	=47	=47	=47
1IV7	G-:maj7	179.336	newline	voice	1G- 1b- 1dd- 1ff
=48	=48	=48	=48	=48	=48
2ii7	E-:min7	183.249	.	voice	2E- 2g- 2b- 2dd-
2V	A-:maj	185.206	.	voice	2A- 2cc 2ee-
=49	=49	=49	=49	=49	=49
1I7	D-:maj7	187.163	.	voice	1D- 1f 1a- 1cc
=50	=50	=50	=50	=50	=50
4-VIIe	C-:maj/2	191.077	.	voice	4C- 4e- 4g-
4Im7	D-:7	192.055	.	voice	4D- 4f 4a- 4cc
4IVb	G-:maj/3	193.033	.	voice	4g- 4B- 4dd-
4V	A-:maj	194.012	.	voice	4A- 4cc 4ee-
=51	=51	=51	=51	=51	=51
1IV7	G-:maj7	194.99	newline	voice	1G- 1b- 1dd- 1ff
=52	=52	=52	=52	=52	=52
4IV7	G-:maj7	198.512	.	voice	4G- 4b- 4dd- 4ff
4Ib	D-:maj/3	199.392	.	voice	4d- 4F 4a-
2ii7	E-:min7	200.273	.	voice	2E- 2g- 2b- 2dd-
=53	=53	=53	=53	=53	=53
1ii7	E-:min7	202.033	.	voice	1E- 1g- 1b- 1dd-
=54	=54	=54	=54	=54	=54
2V	A-:maj	205.555	.	voice	2A- 2cc 2ee-
4V	A-:sus4	207.316	.	voice	4A- 4cc 4ee-
4V	A-:maj	208.196	.	voice	4A- 4cc 4ee-
1r;	N	209.077	.	r	1r;
=55	=55	=55	=55	=55	=55
*>A2_coda	*>A2_coda	*>A2_coda	*>A2_coda	*>A2_coda	*>A2_coda
2I	D-:sus4	212.598	newline	r	2D- 2f 2a-
2I	D-:maj	214.351	.	r	2D- 2f 2a-
1r;	N	220.925	.	r	1r;
1r;	N	227.553	.	r	1r;
*-	*-	*-	*-	*-	*-
!!!OTL: Still
!!!COC: Commodores
!!!BillboardChartDate: 1980/01/19
!!!BillboardPeak: 1
!!!BillboardWeeksOnChart: 20
!!!SampleTargetRank: 22
!!!SampleActualRank: 22
!!!SampleID#: 0507
!!!RDF**harmony: **recip + pitch class of root + harmonic quality
!!!RDF**harte: Chris Harte's syntax, used by MIREX
!!!RDF**phrase: newline = linebreak in original McGill transcription
!!!RDF**timestamp: McGill audio timestamp in seconds
!!!RDF**leadinstrument: original McGill primary instrumentation annotation
!!!RDT: 2017/01/12/
!!!ENC: Nathaniel Condit-Schultz
!!!EST: Awating manual error checking and editing.
